X: 6
T: The Sailor's Wife
R: jig
M: 6/8
L: 1/8
K: Gmaj
EFG F2E | e2f g2a | bag fed | B/c/dB AFD |
EFG F2E | e2f g2a | bge af^d |1 e3 eBG :|2 e3 e2f ||
|:gab b3 | gab bag | fda fda | fda agf |
gab bag | fga aga | bge afe^d |1 e3 e2f :|2 e3 eBG ||


Tune 3140	Setting 16251

